icons/chemical_burn.svg

<svg width="48" height="48" viewBox="0 0 48 48" fill="none" xmlns="http://www.w3.org/2000/svg">
<path fill-rule="evenodd" clip-rule="evenodd" d="M19.8226 17.4343C20.8776 16.7948 22.2264 16.8659 23.2071 17.6187C24.7229 18.7822 24.7438 21.038 23.2484 22.2284L20.5462 24.3793H31.7203C33.3537 24.3793 34.7105 25.6833 34.7105 27.3319C34.7105 27.6835 34.6488 28.0194 34.5359 28.3303C35.9245 28.5747 37 29.7693 37 31.2371C37 32.7048 35.9245 33.8994 34.5359 34.1439C34.6488 34.4548 34.7105 34.7907 34.7105 35.1423C34.7105 36.7908 33.3537 38.0948 31.7203 38.0948H29.9731C30.0758 38.3928 30.1316 38.713 30.1316 39.0474C30.1316 40.696 28.7747 42 27.1414 42H16.4801C10.7102 42 6 37.406 6 31.6991C6 30.9859 6.08811 29.5852 6.24149 28.5503C6.28028 28.2885 6.32551 28.0343 6.37843 27.812C6.42529 27.6152 6.49817 27.3527 6.62285 27.133C6.67714 27.0374 6.81845 26.8067 7.09614 26.6571C7.255 26.5716 7.45915 26.5131 7.68995 26.5314C7.91639 26.5494 8.09821 26.6356 8.22752 26.7265C8.45729 26.8881 8.57679 27.1019 8.63044 27.2077C8.69572 27.3364 8.74533 27.4744 8.78499 27.6043C8.81636 27.707 8.84766 27.8124 8.87958 27.92C9.11952 28.7283 9.39458 29.6549 9.99973 30.452C10.6274 31.2788 11.6587 32.0143 13.6286 32.0143C15.5881 32.0143 16.7049 31.2343 17.365 30.3234C18.062 29.3614 18.303 28.1707 18.303 27.3704V18.2556L19.8226 17.4343ZM31.7203 36.0948C32.2853 36.0948 32.7105 35.6504 32.7105 35.1423C32.7105 34.6341 32.2853 34.1897 31.7203 34.1897H22.2632V32.1897H34.0098C34.5747 32.1897 35 31.7453 35 31.2371C35 30.7289 34.5747 30.2845 34.0098 30.2845H22.2632V28.2845H31.7203C32.2853 28.2845 32.7105 27.8401 32.7105 27.3319C32.7105 26.8237 32.2853 26.3793 31.7203 26.3793H20.303V27.3704C20.303 28.4842 19.9854 30.1154 18.9845 31.4969C17.9466 32.9294 16.2262 34.0143 13.6286 34.0143C11.0413 34.0143 9.41742 32.9926 8.40676 31.6613C8.26389 31.4731 8.13436 31.2796 8.01663 31.0842C8.00569 31.3241 8 31.5355 8 31.6991C8 36.2656 11.7786 40 16.4801 40H27.1414C27.7063 40 28.1316 39.5556 28.1316 39.0474C28.1316 38.5392 27.7063 38.0948 27.1414 38.0948H20.6471V36.0948H31.7203ZM20.303 22.0166V19.4481L20.8242 19.1664L20.8499 19.1504C21.2034 18.9307 21.6619 18.9539 21.9894 19.2052C22.4744 19.5776 22.4803 20.2836 22.0029 20.6636L20.303 22.0166Z" fill="black"/>
<path fill-rule="evenodd" clip-rule="evenodd" d="M11.9115 18C11.9115 19.8246 11.1822 21.1798 10.4094 22.757C9.44662 24.7217 10.3423 26.4224 11.4417 28C11.4417 26.1895 11.695 25.1674 12.8858 23.8067C13.6182 25.2983 13.6846 26.3932 13.4532 28C16.4866 26.3336 16.3245 23.6012 15.4404 20.5C15.2699 21.2143 14.9523 21.8636 14.746 22.3182C14.335 20.5078 13.1632 19.1816 11.9115 18Z" fill="black"/>
<path fill-rule="evenodd" clip-rule="evenodd" d="M19 13L38 13C39.1046 13 40 12.1046 40 11C40 9.89543 39.1046 9 38 9L19 9V7L38 7C40.2091 7 42 8.79086 42 11C42 13.2091 40.2091 15 38 15L19 15V13Z" fill="black"/>
<path fill-rule="evenodd" clip-rule="evenodd" d="M16 14H17V8H16V14ZM14 15C14 15.5523 14.4477 16 15 16H18C18.5523 16 19 15.5523 19 15V7C19 6.44772 18.5523 6 18 6L15 6C14.4477 6 14 6.44772 14 7V15Z" fill="black"/>
<path fill-rule="evenodd" clip-rule="evenodd" d="M31.3714 8.92848L16.3714 14.9285L15.6286 13.0715L30.6286 7.07152L31.3714 8.92848Z" fill="black"/>
</svg>

<svg
  xmlns="http://www.w3.org/2000/svg"
  width="24"
  height="24"
  viewBox="0 0 24 24"
  fill="none"
  stroke="currentColor"
  stroke-width="2"
  stroke-linecap="round"
  stroke-linejoin="round"
>
  <path
    fill-rule="evenodd"
    d="M19.823 17.434a3.01 3.01 0 0 1 3.384.185 2.917 2.917 0 0 1 .041 4.61l-2.702 2.15H31.72c1.634 0 2.99 1.304 2.99 2.953 0 .351-.061.687-.174.998 1.389.245 2.464 1.44 2.464 2.907s-1.075 2.662-2.464 2.907c.113.31.175.647.175.998 0 1.649-1.357 2.953-2.99 2.953h-1.748c.103.298.159.618.159.952 0 1.649-1.357 2.953-2.99 2.953H16.48C10.71 42 6 37.406 6 31.7c0-.714.088-2.115.241-3.15.04-.262.085-.516.137-.738.047-.197.12-.46.245-.679.054-.096.195-.326.473-.476a1.07 1.07 0 0 1 1.132.07c.23.161.349.375.402.48.066.13.115.267.155.397l.095.316c.24.808.515 1.735 1.12 2.532.627.827 1.659 1.562 3.629 1.562 1.96 0 3.076-.78 3.736-1.69.697-.963.938-2.153.938-2.954v-9.114zm11.897 18.66c.565 0 .99-.444.99-.952s-.425-.952-.99-.952h-9.457v-2H34.01c.565 0 .99-.445.99-.953s-.425-.952-.99-.952H22.263v-2h9.457c.565 0 .99-.445.99-.953s-.425-.953-.99-.953H20.303v.991c0 1.114-.318 2.745-1.319 4.127-1.037 1.432-2.758 2.517-5.355 2.517-2.588 0-4.212-1.021-5.222-2.353a7 7 0 0 1-.39-.577c-.011.24-.017.451-.017.615C8 36.266 11.779 40 16.48 40h10.661c.565 0 .99-.444.99-.953s-.425-.952-.99-.952h-6.494v-2zM20.303 22.018v-2.569l.521-.282.026-.016c.353-.22.812-.196 1.14.055a.917.917 0 0 1 .013 1.459z"
    clip-rule="evenodd"
  />
  <path
    fill-rule="evenodd"
    d="M11.912 18c0 1.825-.73 3.18-1.503 4.757-.962 1.965-.067 3.665 1.033 5.243 0-1.81.253-2.833 1.444-4.193.732 1.491.799 2.586.567 4.193 3.034-1.666 2.872-4.399 1.987-7.5-.17.714-.488 1.364-.694 1.818-.411-1.81-1.583-3.136-2.835-4.318"
    clip-rule="evenodd"
  />
  <path
    fill-rule="evenodd"
    d="M19 13h19a2 2 0 1 0 0-4H19V7h19a4 4 0 0 1 0 8H19z"
    clip-rule="evenodd"
  />
  <path
    fill-rule="evenodd"
    d="M16 14h1V8h-1zm-2 1a1 1 0 0 0 1 1h3a1 1 0 0 0 1-1V7a1 1 0 0 0-1-1h-3a1 1 0 0 0-1 1z"
    clip-rule="evenodd"
  />
  <path
    fill-rule="evenodd"
    d="m31.371 8.928-15 6-.742-1.857 15-6z"
    clip-rule="evenodd"
  />
</svg>
